images/favicon.svg

<?xml version="1.0" encoding="UTF-8"?><svg id="a" xmlns="http://www.w3.org/2000/svg" width="32" height="32" viewBox="0 0 32 32"><path d="m30.12,0H1.88C.84,0,0,.84,0,1.88v28.24c0,1.04.84,1.88,1.88,1.88h28.24c1.04,0,1.88-.84,1.88-1.88V1.88c0-1.04-.84-1.88-1.88-1.88ZM3.2,3.2h6.4v11.73H3.2V3.2Zm12.8,25.6H3.2v-10.67h12.8v10.67Zm0-15.29v1.42h-3.2v-2.13h3.2v.71Zm0-4.98v2.14h-3.27v-3.2h3.27v1.06Zm0-4.62v1.42h-3.2v-2.13h3.2v.71Zm6.4,24.89h-3.2V3.2h3.2v25.6Zm6.4,0h-3.2V3.2h3.2v25.6Z" fill="#93C5FD" fill-rule="evenodd"/></svg>

<?xml version="1.0" encoding="utf-8"?>
<!-- Generator: Adobe Illustrator 27.2.0, SVG Export Plug-In . SVG Version: 6.00 Build 0)  -->
<svg version="1.1" id="Camada_1" xmlns:xodm="http://www.corel.com/coreldraw/odm/2003"
	 xmlns="http://www.w3.org/2000/svg" xmlns:xlink="http://www.w3.org/1999/xlink" x="0px" y="0px" viewBox="0 0 32 32"
	 style="enable-background:new 0 0 32 32;" xml:space="preserve">
<style type="text/css">
	.st0{fill-rule:evenodd;clip-rule:evenodd;fill:#2D355E;}
</style>
<path class="st0" d="M30.1,0H1.9C0.8,0,0,0.8,0,1.9v28.2c0,1,0.8,1.9,1.9,1.9h28.2c1,0,1.9-0.8,1.9-1.9V1.9C32,0.8,31.2,0,30.1,0z
	 M3.2,3.2c2.1,0,4.3,0,6.4,0c0,3.9,0,7.8,0,11.7c-2.1,0-4.3,0-6.4,0C3.2,11,3.2,7.1,3.2,3.2z M16,28.8c-4.3,0-8.5,0-12.8,0
	c0-3.6,0-7.1,0-10.7c4.3,0,8.5,0,12.8,0C16,21.7,16,25.2,16,28.8z M16,13.5v0.7v0.7h-0.5h-0.5h-0.5h-0.5h-0.5h-0.5v-0.7v-0.7v-0.7
	h0.5h0.5h0.5h0.5h0.5H16V13.5z M16,8.5v1.1v1.1h-0.5h-0.5h-0.5h-0.5h-0.5h-0.6V9.6V8.5V7.5h0.6h0.5h0.5h0.5h0.5H16V8.5z M16,3.9v0.7
	v0.7h-0.5h-0.5h-0.5h-0.5h-0.5h-0.5V4.6V3.9V3.2h0.5h0.5h0.5h0.5h0.5H16V3.9z M22.4,28.8c-1.1,0-2.1,0-3.2,0c0-8.5,0-17.1,0-25.6
	c1.1,0,2.1,0,3.2,0C22.4,11.7,22.4,20.3,22.4,28.8z M28.8,28.8c-1.1,0-2.1,0-3.2,0c0-8.5,0-17.1,0-25.6c1.1,0,2.1,0,3.2,0
	C28.8,11.7,28.8,20.3,28.8,28.8z"/>
</svg>
